X:1
T:Humours of Newbury,The. JJo6.1
B:J.Johnson Choice Collection Vol 6, 1751
Z:vmp.Robert Watkins 2015 www.village-music-project.org.uk
M:6/8
L:1/8
Q:3/8=116
K:D
DEDD2d|cBcd3|BGB AFA|GEGF2E|
D2DD2d|cBcd3|ced cBA|E2^GA3:|
|:A2aTg2f|edcd3|BGB AFA|GEGTF2E|
D2aTg2f|edc dcB|A2G FAd|Edcd3:|
